icons/tokens/0x98B058b2CBacF5E99bC7012DF757ea7CFEbd35BC/logo.svg

<svg width="32" height="32" viewBox="0 0 32 32" fill="none" xmlns="http://www.w3.org/2000/svg">
<path fill-rule="evenodd" clip-rule="evenodd" d="M32 15.9999C32 13.9059 31.5834 11.8118 30.7821 9.87706C29.9805 7.94234 28.7942 6.16698 27.3136 4.68634C25.833 3.20538 24.0576 2.01946 22.1229 1.21786C20.1882 0.416579 18.0941 -6.10352e-05 16 -6.10352e-05C13.9059 -6.10352e-05 11.8115 0.416579 9.8768 1.21786C7.94208 2.01946 6.16704 3.20538 4.68608 4.68634C3.20544 6.16698 2.0192 7.94234 1.21792 9.87706C0.41632 11.8118 0 13.9059 0 15.9999C0 18.094 0.41632 20.1881 1.21792 22.1228C2.0192 24.0575 3.20544 25.8329 4.68608 27.3139C6.16704 28.7945 7.94208 29.9807 9.8768 30.782C11.8115 31.5833 13.9059 31.9999 16 31.9999C18.0941 31.9999 20.1882 31.5833 22.1229 30.782C24.0576 29.9807 25.833 28.7945 27.3136 27.3139C28.7942 25.8329 29.9805 24.0575 30.7821 22.1228C31.5834 20.1881 32 18.094 32 15.9999Z" fill="white"/>
<path fill-rule="evenodd" clip-rule="evenodd" d="M11.8547 3.38361C13.3453 2.89369 14.9382 2.66969 16.5162 2.73017C18.0944 2.79065 19.6579 3.13593 21.113 3.74393C22.5683 4.35193 23.9152 5.22297 25.0675 6.29753C26.5917 7.71929 27.775 9.49753 28.4848 11.4867C29.1949 13.4761 29.4314 15.6764 29.1574 17.7711C28.8838 19.8659 28.0998 21.8553 26.9139 23.566C25.728 25.2767 24.1398 26.7084 22.2746 27.7004C20.4093 28.6921 18.2662 29.2438 16.1539 29.2758C14.0416 29.3078 11.9597 28.8204 10.095 27.895C8.23073 26.9695 6.58337 25.6063 5.33249 23.9036C4.08161 22.2009 3.22721 20.1587 2.88801 18.0748C2.54881 15.9907 2.72481 13.8646 3.37473 11.8812C3.86593 10.3817 4.62817 8.96409 5.6048 7.73561H4.12033V5.28185H9.93696V10.7135H7.48321V9.22937C6.68321 10.2355 6.05857 11.3967 5.65633 12.6255C5.12417 14.2511 4.98081 15.9951 5.25633 17.6969C5.59873 19.8137 6.58881 21.8649 8.06657 23.4457C9.83425 25.3363 12.2995 26.5542 14.8659 26.8207C17.432 27.0873 20.0992 26.4028 22.2173 24.9286C24.3354 23.4543 25.905 21.1903 26.5421 18.6899C27.1792 16.1894 26.8838 13.4524 25.735 11.142C24.5862 8.83161 22.5837 6.94841 20.1891 5.95897C17.7946 4.96921 15.0077 4.87385 12.6038 5.66361L11.8547 3.38361Z" fill="url(#paint0_linear)"/>
<circle cx="16" cy="16" r="8" fill="black"/>
<circle cx="16" cy="16" r="8" fill="url(#paint1_linear)"/>
<circle cx="16" cy="16" r="6.93333" fill="white"/>
<circle cx="15.9833" cy="15.9833" r="6.31667" fill="black"/>
<path d="M16.4066 19.3C16.041 19.3 15.7027 19.2483 15.3919 19.145C15.0811 19.0355 14.8038 18.8805 14.56 18.6798C14.3224 18.4792 14.1212 18.239 13.9567 17.9593C13.7982 17.6735 13.6855 17.3574 13.6185 17.0108H12.75V16.345H13.5453C13.5392 16.3024 13.5362 16.2568 13.5362 16.2082V15.8616C13.5423 15.7947 13.5453 15.74 13.5453 15.6975H12.75V15.0317H13.6093C13.6763 14.6729 13.7921 14.3507 13.9567 14.0649C14.1273 13.7791 14.3345 13.539 14.5783 13.3444C14.8282 13.1438 15.1116 12.9917 15.4285 12.8884C15.7454 12.785 16.0867 12.7333 16.4523 12.7333C16.8729 12.7333 17.2233 12.7881 17.5036 12.8975C17.784 13.0069 18.0216 13.1438 18.2167 13.3079L17.7596 14.1835C17.5524 14.0254 17.3452 13.9159 17.138 13.8551C16.9368 13.7943 16.7114 13.7639 16.4615 13.7639C16.0166 13.7639 15.6448 13.8734 15.3462 14.0923C15.0476 14.3112 14.8556 14.6243 14.7703 15.0317H17.4305L17.1105 15.6975H14.6972C14.6972 15.7522 14.6941 15.8069 14.688 15.8616V16.1808C14.6941 16.2356 14.6972 16.2903 14.6972 16.345H16.9277L16.6077 17.0108H14.7703C14.8556 17.4121 15.0445 17.7222 15.3371 17.9411C15.6357 18.16 16.0044 18.2694 16.4432 18.2694C16.7174 18.2694 16.9551 18.236 17.1562 18.1691C17.3635 18.0961 17.5402 18.0049 17.6865 17.8955L18.2167 18.7254C17.9973 18.9139 17.7383 19.0568 17.4396 19.1541C17.1471 19.2514 16.8028 19.3 16.4066 19.3V19.3Z" fill="white"/>
<defs>
<linearGradient id="paint0_linear" x1="2.04343" y1="13.297" x2="15.2222" y2="29.5764" gradientUnits="userSpaceOnUse">
<stop stop-color="#004CFF"/>
<stop offset="0.252131" stop-color="#00E0FB"/>
<stop offset="0.505709" stop-color="#87FF70"/>
<stop offset="0.755054" stop-color="#F8F500"/>
<stop offset="1" stop-color="#FF1A00"/>
</linearGradient>
<linearGradient id="paint1_linear" x1="8" y1="8" x2="24" y2="24" gradientUnits="userSpaceOnUse">
<stop stop-color="white"/>
<stop offset="1" stop-color="white" stop-opacity="0"/>
</linearGradient>
</defs>
</svg>

<svg width="32" height="32" fill="none" xmlns="http://www.w3.org/2000/svg"><path fill-rule="evenodd" clip-rule="evenodd" d="M32 16c0-2.094-.417-4.188-1.218-6.123a16.058 16.058 0 00-3.468-5.19 16.051 16.051 0 00-5.191-3.47A16.054 16.054 0 0016 0c-2.094 0-4.188.417-6.123 1.218a16.055 16.055 0 00-5.19 3.468 16.05 16.05 0 00-3.47 5.191A16.049 16.049 0 000 16c0 2.094.416 4.188 1.218 6.123a16.056 16.056 0 003.468 5.19 16.055 16.055 0 005.19 3.469A16.056 16.056 0 0016 32c2.094 0 4.188-.417 6.123-1.218a16.051 16.051 0 005.19-3.468 16.063 16.063 0 003.47-5.191A16.054 16.054 0 0032 16z" fill="#fff"/><path fill-rule="evenodd" clip-rule="evenodd" d="M11.855 3.384a13.267 13.267 0 0113.213 2.914 13.155 13.155 0 013.417 5.189c.71 1.99.946 4.19.672 6.284a13.194 13.194 0 01-2.243 5.795 13.207 13.207 0 01-4.64 4.134 13.622 13.622 0 01-6.12 1.576 13.207 13.207 0 01-6.059-1.381 13.19 13.19 0 01-4.763-3.991 13.662 13.662 0 01-2.444-5.83 13.13 13.13 0 01.487-6.193 13.392 13.392 0 012.23-4.145H4.12V5.282h5.817v5.431H7.483V9.23a10.961 10.961 0 00-1.827 3.397 10.787 10.787 0 00-.4 5.07 11.107 11.107 0 002.81 5.75 10.952 10.952 0 006.8 3.375 11.023 11.023 0 007.351-1.892 10.999 10.999 0 004.325-6.24c.637-2.5.342-5.237-.807-7.547a10.919 10.919 0 00-5.546-5.183c-2.394-.99-5.181-1.085-7.585-.295l-.75-2.28z" fill="url(#paint0_linear)"/><circle cx="16" cy="16" r="8" fill="#000"/><circle cx="16" cy="16" r="8" fill="url(#paint1_linear)"/><circle cx="16" cy="16" r="6.933" fill="#fff"/><circle cx="15.983" cy="15.983" r="6.317" fill="#000"/><path d="M16.407 19.3a3.2 3.2 0 01-1.015-.155 2.717 2.717 0 01-.832-.465c-.238-.2-.439-.441-.603-.72a3.19 3.19 0 01-.339-.95h-.868v-.665h.795a.967.967 0 01-.009-.137v-.346c.006-.067.01-.122.01-.165h-.796v-.665h.86c.066-.36.182-.681.347-.967a2.646 2.646 0 011.471-1.177 3.282 3.282 0 011.024-.155c.42 0 .771.055 1.052.165.28.109.518.246.713.41l-.457.876a1.927 1.927 0 00-.622-.329 2.335 2.335 0 00-.677-.091c-.444 0-.816.11-1.115.328-.298.22-.49.532-.576.94h2.66l-.32.665h-2.413c0 .055-.003.11-.009.165v.319c.006.055.01.11.01.164h2.23l-.32.666H14.77c.086.401.274.711.567.93.299.219.667.328 1.106.328.274 0 .512-.033.713-.1.207-.073.384-.164.53-.274l.53.83c-.219.189-.478.332-.776.43a3.28 3.28 0 01-1.033.145z" fill="#fff"/><defs><linearGradient id="paint0_linear" x1="2.043" y1="13.297" x2="15.222" y2="29.576" gradientUnits="userSpaceOnUse"><stop stop-color="#004CFF"/><stop offset=".252" stop-color="#00E0FB"/><stop offset=".506" stop-color="#87FF70"/><stop offset=".755" stop-color="#F8F500"/><stop offset="1" stop-color="#FF1A00"/></linearGradient><linearGradient id="paint1_linear" x1="8" y1="8" x2="24" y2="24" gradientUnits="userSpaceOnUse"><stop stop-color="#fff"/><stop offset="1" stop-color="#fff" stop-opacity="0"/></linearGradient></defs></svg>
